public/assets/icons/corebonus.svg

<?xml version="1.0" standalone="no"?>
<!DOCTYPE svg PUBLIC "-//W3C//DTD SVG 1.1//EN" "http://www.w3.org/Graphics/SVG/1.1/DTD/svg11.dtd" >
<svg xmlns="http://www.w3.org/2000/svg" xmlns:xlink="http://www.w3.org/1999/xlink" version="1.1" viewBox="0 -64 1024 1024" width="512" height="512">
  <g transform="matrix(1 0 0 -1 0 960)">
   <path fill="currentColor"
d="M375 448l137 137l137 -137l-137 -137zM478 823v-88l-102 -102l-45 44l-48 -48l44 -45l-102 -102h-88v-68h88l102 -103l-44 -44l48 -48l45 44l102 -102v-89h68v89l103 102l44 -44l48 48l-44 44l102 103h89v68h-89l-102 103l44 44l-48 48l-44 -44l-103 102v88h-68zM512 673
l225 -225l-225 -225l-225 225z" />
  </g>

</svg>

<?xml version="1.0" encoding="UTF-8" standalone="no"?>
<svg
   version="1.1"
   viewBox="0 -64 1024 1024"
   width="512"
   height="512"
   id="svg705"
   sodipodi:docname="corebonus.svg"
   inkscape:version="1.2.2 (732a01da63, 2022-12-09)"
   xmlns:inkscape="http://www.inkscape.org/namespaces/inkscape"
   xmlns:sodipodi="http://sodipodi.sourceforge.net/DTD/sodipodi-0.dtd"
   xmlns="http://www.w3.org/2000/svg"
   xmlns:svg="http://www.w3.org/2000/svg">
  <defs
     id="defs709" />
  <sodipodi:namedview
     id="namedview707"
     pagecolor="#ffffff"
     bordercolor="#000000"
     borderopacity="0.25"
     inkscape:showpageshadow="2"
     inkscape:pageopacity="0.0"
     inkscape:pagecheckerboard="0"
     inkscape:deskcolor="#d1d1d1"
     showgrid="false"
     inkscape:zoom="1.6191406"
     inkscape:cx="236.23643"
     inkscape:cy="256.30881"
     inkscape:window-width="1920"
     inkscape:window-height="1009"
     inkscape:window-x="-8"
     inkscape:window-y="-8"
     inkscape:window-maximized="1"
     inkscape:current-layer="svg705" />
  <g
     transform="matrix(1,0,0,-1,-0.5,895.5)"
     id="g703">
    <path
       fill="currentColor"
       d="M 375,448 512,585 649,448 512,311 Z M 478,823 V 735 L 376,633 331,677 283,629 327,584 225,482 h -88 v -68 h 88 l 102,-103 -44,-44 48,-48 45,44 102,-102 V 72 h 68 v 89 l 103,102 44,-44 48,48 -44,44 102,103 h 89 v 68 h -89 l -102,103 44,44 -48,48 -44,-44 -103,102 v 88 z M 512,673 737,448 512,223 287,448 Z"
       id="path701" />
  </g>
</svg>
